X:1
T:Title
%%score { ( 1 3 ) | ( 2 4 ) }
L:1/8
Q:1/4=100
M:6/8
K:C
V:1 treble nm="Grand Piano"
V:3 treble 
V:2 bass 
V:4 bass 
V:1
 [EG]>[CE][DF] [EG][Ec][FA] | [EG]3 [CE]3 | [DF]>[CE][DF] [FA][EG][DF] | [CE]6 | %4
w: E.~O.~Excell * * * * *||||
 [EG]>[CE][DF] [EG][Ec][FA] | [EG]3 [Ec]3 | B>AG GAB | [Ec]6 | B>BB Bcd | [Ge]3 [CEc]3 | %10
w: ||||||
 [CAc]>[CAc][CAc] [CAc][CGB][CFA] | [CEG]6 | [CEc]>[CFc][CGc] [CAc][CGB][CFA] | E2- [Ec] [CEG]3 | %14
w: ||||
 [DFB]>[CFA][B,FG] [B,FG][CFA][DFB] | [CEc]6 | G->[EG-][EG-] [EG]Ec | G->[EG-][EG-] [EG]3 | .B6 | %19
w: |||||
 c6 | [CEc]>[CFc][CGc] [CAc][CGB][CFA] | E2- [Ec] [CEG]3 | [DFB]>[CFA][B,FG] [B,FG][CFA][DFB] | %23
w: ||||
[M:7/4] [CEc]6 z2 z2 z4 |] %24
w: |
V:2
 [C,G,]>[C,G,][C,G,] [C,G,][C,G,][C,B,] | [C,C]3 [C,G,]3 | %2
 [G,,G,]>[G,,G,][G,,G,] [G,,G,][G,,G,][G,,G,] | [C,G,]6 | [C,G,]>[C,G,][C,G,] [C,G,][C,G,][C,B,] | %5
 [C,C]3 [C,C]3 | [G,DF]>[G,CF][G,B,F] [G,B,F][G,CF][G,DF] | [C,C]6 | %8
 [G,D]>[G,D][G,D] [G,D][K:treble][G,E][G,F] | [C,G,]3 C,3 | F,>F,F, F,F,F, | C,6 | C,>D,E, F,F,F, | %13
 z2 G, C,3 | G,>C,G, G,G,G, | C,6 | C,>[C,G,][C,G,] .[C,C]3 | [C,G,]>[C,G,][C,G,] .[C,C]3 | %18
 [G,F]>G,G, z Gd | C,>C,C, .C,3 | C,>D,E, F,F,F, | z2 G, C,3 | G,>C,G, G,G,G, | %23
[M:7/4] C,6 z2 z2 z4 |] %24
V:3
 x6 | x6 | x6 | x6 | x6 | x6 | x6 | x6 | x6 | x6 | x6 | x6 | x6 | .[CG]3 z3 | x6 | x6 | %16
 .[G,E]3 z3 | .E3 z3 | z z/ F/F .[DF]3 | [CE]>[CE][CE] .[G,E]3 | x6 | .[CG]3 z3 | x6 | %23
[M:7/4] x14 |] %24
V:4
 x6 | x6 | x6 | x6 | x6 | x6 | x6 | x6 | x4[K:treble] x2 | x6 | x6 | x6 | x6 | C,3 z3 | x6 | x6 | %16
 x6 | x6 | z3 .G,3 | x6 | x6 | C,3 z3 | x6 |[M:7/4] x14 |] %24

